X: 915
T: Gözünün Rengini Sordum
C: Selahaddin Pınar
O: Turkey
F: http://compmusic.upf.edu/node/140
N: huzzam--sarki--aksak--gozunun_rengini--selahattin_pinar
N: makam= huzzam
N: form= sarki
N: usul= aksak = 9/8
M: 9/8
L: 1/16
K: C _1/4B _3/4e ^3/4f 
Q: 1/4=102
%%MIDI tuningsystem comma53
B4 defe d4 z4 z2 | gf2eed d2dc c2fe2g(3fed  | 
w:  *  Gö *  zü *  nün   |  ren *  *  gi *  ni  sor *  *  dum   | 
d4 f2fg fed2 cBAG AB | cd efg2 a_bag fed4cB  | 
w:  *  ka ra *  sev *  *  dâ   |  *  *  *  *  de di *  ler   *  *  *  *  SAZ  | 
B4 defe d4 z4 z2 | gf2eed d2dc c2fe2g(3fed  | 
w:  *  Gö *  zü *  nün   |  ren *  *  gi *  ni  sor *  *  dum   | 
d4 f2fg fed2 cBAG AB | cd efg2 a_bag fed4ef  | 
w:  *  ka ra *  sev *  *  dâ   |  *  *  *  *  de di *  ler   *  *  *  *  SAZ  | 
g4 g2g2 gf2e _b4 ag | gf2eg2 gagf2gfe efed  | 
w:  *  Be ni  Mec *  *  nûn   |  *  *  *  e de *  nin  *  *  is  | 
d4 e2e2 e3d a4 a_b | ag gagf fgfe/d/ e2g3fee/d/  | 
w:  *  mi ne  Ley *  lâ   |  *  *  *  *  de *  di *  ler   *  *  *  SAZ  | 
e4 e2ec e2dc c'_bag fe | dc (3B^ABB2 B2B4z4z2  | 
w:  *  Be ni  *  Mec *  *  nûn   |  *  *  *  *  *  e de nin   | 
feed d2d2 d2(3cBc e4 ed | ed2edc cBB4a_b c'bba  | 
w:  is *  *  *  mi ne  Ley *  *  *  lâ   |  *  *  *  de *  di *  ler   SAZ  | 
a4 g3a a4 z4 z2 | a2 _b2b2 b2b2 c'2b2 a2ag  | \
w:  *  Zül fü ne   |  bağ *  lı  ka lan   | 
g4 a3_b ag(3fef a2g2 c'2 | 
w:  *  dil le re  *  *  *  *  şey  | 
=b2 c'ba2 a2a4a_b abac'  | _b4 b3b b4 z4 z2 | \
w:  dâ  *  *  de di ler   SAZ  |  *  Zül fü ne   | 
a_b c'd'c'c' (3baga3g/=f/f6  | 
w:  bağ *  *  *  lı  *  ka *  *  lan   | 
g/a/g/=f/ga _bc'(3bag a2gf f4 (3_1/4ede | \
w:  dil *  *  *  *  *  le *  re  *  *  şey *  *  dâ   | 
gf edd2 d2d4de fgfa  | 
w:  *  *  *  *  de di ler   SAZ  | 
g4 g2g2 gf2e _b4 ag | gf2eg2 gagf2gfe efed  | 
w:  *  Be ni  Mec *  *  nûn   |  *  *  *  e de *  nin  *  *  is  | 
d4 e2e2 e3d a4 a_b | ag gagf fgfe/d/ e2g3fee/d/  | 
w:  *  mi ne  Ley *  lâ   |  *  *  *  *  de *  di *  ler   *  *  *  SAZ  | 
e4 e2ec e2dc c'_bag fe | dc (3B^ABB2 B2B4z4z2  | 
w:  *  Be ni  *  Mec *  *  nûn   |  *  *  *  *  *  e de nin   | 
feed d2d2 d2(3cBc e4 ed | ed2edc cBB4|
w:  is *  *  *  mi ne  Ley *  *  *  lâ   |  *  *  *  de *  di *  ler    | 


